X:52
T:Bowlegged Tailor, The
S:Trad, arr. Paddy O'Brien
Z:Set: The Bowlegged Tailor/O'Mahony's/Fr. Fielding's Favorite
R:jig
E:12
I:speed 350
M:6/8
K:G
D|GFG gfg|edc ~B2A|GFG BAG |EFG cBA|\
GFG gfg|afd cAF|DEG Adc|BGF G2:|\
B/2c/2|dBG dBG|ecA dBG|gba gdB|cAA ABc|\
dBg dBG|EFG AFD|GFG Adc|BGF G2:|**

